src/assets/howItWorks/Forbes.svg

<svg xmlns="http://www.w3.org/2000/svg" width="77" height="20" viewBox="0 0 77 20" fill="none">
<path fill-rule="evenodd" clip-rule="evenodd" d="M43.7268 6.26934C44.7006 5.73969 45.6737 5.47467 46.9128 5.47467C49.9221 5.47467 52.2233 8.12451 52.2233 11.7452C52.2233 16.3375 49.3913 19.252 44.6999 19.252C43.0178 19.252 41.3358 18.9869 39.7424 18.6334C39.8315 16.7787 39.9209 5.47467 39.7424 3.35526C39.567 2.29517 39.3002 1.85399 38.5045 1.67743L37.885 1.58936V1.05931L43.8159 0C43.7268 0.882757 43.7268 3.44334 43.7268 6.26934ZM43.8147 18.1923C44.0795 18.2799 44.5225 18.2799 44.8768 18.2799C46.7358 18.2799 48.0639 15.5428 48.0643 12.0094C48.0643 9.18421 47.0022 6.88826 45.0538 6.88826C44.6104 6.88826 44.2569 6.97634 43.7256 7.15328C43.6377 11.7452 43.7256 16.956 43.8147 18.1923ZM0 0.353103H15.5786L15.6677 5.56353L14.7825 5.82855C13.8977 3.17871 12.6587 1.67783 10.268 1.67783H7.17036C7.08129 3.35566 6.99301 6.18126 6.99301 9.18421L9.11685 9.09535C10.445 9.09535 11.0633 8.03604 11.3298 6.53476H12.1266V12.8029H11.3298C11.0637 11.302 10.445 10.2423 9.11685 10.2423L6.99262 10.1543C6.99262 12.4498 7.0809 14.3046 7.16996 15.4532C7.34652 17.1314 7.7895 17.9261 8.93989 18.0137L10.002 18.1911V18.8973H0V18.1911L0.885161 18.0137C2.03556 17.9265 2.47774 17.1314 2.6547 15.4532C2.83204 12.7164 2.92111 6.97555 2.6547 3.79644C2.47853 2.11862 2.03516 1.41241 0.885161 1.23586L0 1.14778V0.353103ZM27.2497 12.2882C27.2497 8.31438 25.0368 5.31144 20.611 5.31144C16.1852 5.31144 13.707 8.49094 13.707 12.2882C13.707 16.2623 15.9199 19.2657 20.3453 19.2657C24.7712 19.2657 27.2497 16.0854 27.2497 12.2882ZM17.8668 12.2882C17.8668 8.84443 18.3981 6.19498 20.3453 6.19498C22.2047 6.19498 23.0891 8.93251 23.0891 12.2882C23.0891 15.7319 22.5571 18.3814 20.5227 18.3814C18.752 18.3814 17.8668 15.6438 17.8668 12.2882ZM60.1764 5.31144C55.6619 5.31144 53.3608 8.75596 53.3608 12.3766C53.3608 16.4393 56.1928 19.2653 60.1764 19.2657C62.6542 19.2657 64.6014 18.0286 65.4866 16.7924L65.1335 16.3512C64.2475 16.9697 63.5397 17.322 62.1233 17.322C58.9362 17.322 57.3428 14.9376 57.4319 11.67H65.6639C65.6639 8.04936 63.8928 5.31144 60.1764 5.31144ZM61.592 10.6099L57.4319 10.6988C57.5198 8.66709 58.3178 6.19498 59.8221 6.19459C61.3264 6.19459 61.592 8.84404 61.592 10.6099ZM72.1273 5.31144C73.7202 5.31144 75.1363 5.57646 76.1984 6.01843L76.2898 9.46217L75.6707 9.63872C74.8726 7.25429 73.8105 6.28267 72.2183 6.28267C71.1562 6.28267 70.3581 7.07774 70.3581 8.22552C70.3581 9.37409 71.2425 9.99221 73.7214 10.963C76.0226 11.847 76.9968 12.9063 76.9968 14.7611C76.9968 17.4982 74.7836 19.2653 71.3312 19.2653C69.6487 19.2653 67.7019 18.9114 66.6398 18.4702L66.5507 14.5845L67.1706 14.4072C68.1441 17.057 69.3839 18.0279 71.0652 18.0279C72.4816 18.0279 73.2785 17.0566 73.2785 15.9969C73.2785 14.9372 72.6581 14.3183 70.446 13.5244C68.319 12.8178 66.8159 11.8466 66.8159 9.55024C66.8159 7.2539 68.853 5.31144 72.1273 5.31144ZM33.1802 8.40286C34.5962 5.22336 37.2521 4.78257 38.7564 5.66493L37.34 9.28561C35.5696 8.13783 33.6224 8.66709 33.1802 9.28561C33.0911 11.4054 33.0911 14.7611 33.2681 16.4393C33.3571 17.4982 33.6228 18.0279 34.5075 18.1167L35.5696 18.2056V18.9118H27.3384V18.2056L27.9579 18.1167C28.7552 18.0279 29.1083 17.4982 29.1974 16.4393C29.2856 14.5849 29.3743 10.8754 29.1974 8.75596C29.1083 7.60779 28.7552 7.1666 27.9579 7.07774L27.3384 6.98966V6.45961L33.2681 5.31183L33.1802 8.40286Z" fill="#ABB0C1"/>
</svg>

<svg xmlns="http://www.w3.org/2000/svg" width="77" height="20" fill="none">
  <path fill="#ABB0C1" fill-rule="evenodd" d="M43.727 6.27c.974-.53 1.947-.795 3.186-.795 3.01 0 5.31 2.65 5.31 6.27 0 4.592-2.832 7.507-7.523 7.507-1.682 0-3.364-.265-4.958-.619.09-1.854.179-13.158 0-15.278-.175-1.06-.442-1.501-1.237-1.678l-.62-.088v-.53L43.815 0c-.088.883-.088 3.443-.088 6.27m.088 11.922c.265.088.708.088 1.062.088 1.859 0 3.187-2.737 3.187-6.27 0-2.826-1.062-5.122-3.01-5.122-.444 0-.797.088-1.328.265-.088 4.592 0 9.803.089 11.04M0 .353h15.579l.089 5.21-.885.266c-.885-2.65-2.124-4.151-4.515-4.151H7.17a154 154 0 0 0-.177 7.506l2.124-.089c1.328 0 1.946-1.059 2.213-2.56h.797v6.268h-.797c-.266-1.501-.885-2.56-2.213-2.56l-2.124-.089c0 2.296.088 4.15.177 5.3.177 1.677.62 2.472 1.77 2.56l1.062.177v.706H0v-.706l.885-.177c1.15-.087 1.593-.883 1.77-2.56.177-2.738.266-8.478 0-11.658-.176-1.677-.62-2.384-1.77-2.56L0 1.148zm27.25 11.935c0-3.974-2.213-6.977-6.639-6.977s-6.904 3.18-6.904 6.977c0 3.974 2.213 6.978 6.638 6.978 4.426 0 6.905-3.18 6.905-6.978m-9.383 0c0-3.444.531-6.093 2.478-6.093 1.86 0 2.744 2.738 2.744 6.093 0 3.444-.532 6.093-2.566 6.093-1.771 0-2.656-2.737-2.656-6.093m42.31-6.977c-4.515 0-6.816 3.445-6.816 7.066 0 4.062 2.832 6.888 6.815 6.889 2.478 0 4.425-1.237 5.31-2.474l-.353-.44c-.885.618-1.593.97-3.01.97-3.187 0-4.78-2.384-4.691-5.652h8.232c0-3.62-1.771-6.359-5.488-6.359m1.415 5.299-4.16.089c.088-2.032.886-4.504 2.39-4.504s1.77 2.649 1.77 4.415m10.536-5.3c1.593 0 3.01.265 4.071.707l.092 3.444-.62.177c-.797-2.385-1.86-3.356-3.452-3.356-1.062 0-1.86.795-1.86 1.943s.885 1.766 3.363 2.737c2.302.884 3.276 1.943 3.276 3.798 0 2.737-2.213 4.504-5.666 4.504-1.682 0-3.63-.354-4.691-.795l-.09-3.885.62-.178c.974 2.65 2.214 3.62 3.895 3.62 1.417 0 2.213-.97 2.213-2.03s-.62-1.679-2.832-2.473c-2.127-.706-3.63-1.677-3.63-3.974 0-2.296 2.037-4.239 5.311-4.239M33.18 8.403c1.416-3.18 4.072-3.62 5.576-2.738l-1.416 3.62c-1.77-1.147-3.718-.618-4.16 0-.089 2.12-.089 5.476.088 7.154.09 1.06.355 1.589 1.24 1.678l1.062.089v.706h-8.232v-.706l.62-.09c.797-.088 1.15-.618 1.24-1.677.088-1.854.176-5.564 0-7.683-.09-1.148-.443-1.59-1.24-1.678l-.62-.088v-.53l5.93-1.148z" clip-rule="evenodd"/>
</svg>
